public/assets/bg1_2.svg

<?xml version="1.0" encoding="UTF-8" standalone="no"?>
<svg
   width="1920"
   height="981"
   viewBox="0 0 1920 981"
   fill="none"
   version="1.1"
   id="svg13"
   sodipodi:docname="bg1_2.svg"
   inkscape:version="1.3 (0e150ed6c4, 2023-07-21)"
   xmlns:inkscape="http://www.inkscape.org/namespaces/inkscape"
   xmlns:sodipodi="http://sodipodi.sourceforge.net/DTD/sodipodi-0.dtd"
   xmlns="http://www.w3.org/2000/svg"
   xmlns:svg="http://www.w3.org/2000/svg">
  <sodipodi:namedview
     id="namedview13"
     pagecolor="#ffffff"
     bordercolor="#000000"
     borderopacity="0.25"
     inkscape:showpageshadow="2"
     inkscape:pageopacity="0.0"
     inkscape:pagecheckerboard="0"
     inkscape:deskcolor="#d1d1d1"
     showguides="false"
     inkscape:zoom="0.5"
     inkscape:cx="878"
     inkscape:cy="581"
     inkscape:window-width="1920"
     inkscape:window-height="991"
     inkscape:window-x="2391"
     inkscape:window-y="-9"
     inkscape:window-maximized="1"
     inkscape:current-layer="svg13" />
  <defs
     id="defs13">
    <clipPath
       id="clip0_5101_1747">
      <rect
         width="1920"
         height="981"
         fill="white"
         transform="matrix(-1 0 0 1 1920 0)"
         id="rect13" />
    </clipPath>
  </defs>
  <g
     clip-path="url(#clip0_5101_1747)"
     id="g26">
    <rect
       width="1920"
       height="981"
       transform="matrix(-1,0,0,1,1920,0)"
       fill="#ffffff"
       id="rect14"
       x="0"
       y="0" />
    <mask
       id="mask14"
       maskUnits="userSpaceOnUse"
       x="0"
       y="0"
       width="1920"
       height="981">
      <path
         d="M 1919.57,0 H 0.426514 V 980.564 H 1919.57 Z"
         fill="#ffffff"
         id="path14" />
    </mask>
    <g
       mask="url(#mask0_5101_1747)"
       id="g17"
       transform="matrix(1.0004481,0,0,1,-0.43019112,0)">
      <path
         d="M 1919.57,0 H 0.426514 V 980.564 H 1919.57 Z"
         fill="#ffffff"
         id="path15" />
      <path
         d="M 1919.57,0 H 0.426514 V 980.564 H 1919.57 Z"
         fill="#fefefe"
         id="path16" />
      <path
         fill-rule="evenodd"
         clip-rule="evenodd"
         d="M 1919.57,0 H 0.426514 V 980.564 H 1919.57 Z"
         fill="#72c9f2"
         id="path17" />
    </g>
    <mask
       id="mask18"
       maskUnits="userSpaceOnUse"
       x="0"
       y="187"
       width="1920"
       height="794">
      <path
         d="M 1919.57,187.916 H 0.426514 V 980.564 H 1919.57 Z"
         fill="#ffffff"
         id="path18" />
    </mask>
    <g
       mask="url(#mask1_5101_1747)"
       id="g19"
       transform="matrix(1.0004481,0,0,1,-0.43019112,0)">
      <path
         fill-rule="evenodd"
         clip-rule="evenodd"
         d="M 1919.57,980.564 V 202.731 c -2.4,0 -4.31,-0.245 -6.71,-0.245 -53.74,-1.224 -99.8,17.406 -111.79,43.145 -69.57,1.961 -128.11,26.23 -147.3,59.324 -15.35,-2.942 -32.14,-4.657 -49.9,-5.147 -33.1,-0.736 -64.29,3.677 -91.16,11.767 -16.79,-18.142 -52.77,-31.133 -94.99,-32.114 -57.58,-1.227 -107,20.347 -114.19,49.273 -38.87,0.736 -74.85,7.109 -105.08,17.896 -1.92,-40.939 -61.41,-75.259 -140.09,-80.897 1.44,-3.922 2.88,-7.599 3.35,-11.766 2.4,-31.134 -45.1,-57.363 -105.547,-58.59 -52.3,-1.226 -97.877,16.18 -111.313,40.938 -11.513,-1.715 -23.507,-2.696 -35.983,-2.941 -35.984,-0.736 -70.527,4.658 -98.357,14.463 -23.99,-18.14 -63.81,-30.397 -109.87,-31.622 -77.247,-1.471 -142.497,28.926 -145.857,68.394 v 4.902 c -6.236,-0.734 -11.993,-0.979 -16.79,-0.979 -22.07,-0.246 -28.31,0.735 -41.263,2.696 -12.954,-29.662 -82.523,-52.215 -125.704,-52.951 -43.179,-0.49 -73.21297,16.83814 -92.88197,22.47714 C 136.88003,207.06914 75.43601,208.59878 0.4265,202.731 l 1.4e-5,777.833 z"
         fill="#c4e2f6"
         id="path19"
         sodipodi:nodetypes="cccccccccccccccccccccccccc" />
    </g>
    <mask
       id="mask20"
       maskUnits="userSpaceOnUse"
       x="0"
       y="528"
       width="1920"
       height="453">
      <path
         d="M 1919.57,528.868 H 0.426514 V 980.564 H 1919.57 Z"
         fill="#ffffff"
         id="path20" />
    </mask>
    <g
       mask="url(#mask2_5101_1747)"
       id="g21"
       transform="matrix(1.0004481,0,0,1,-0.43019112,0)">
      <path
         fill-rule="evenodd"
         clip-rule="evenodd"
         d="m 0.4265,545.194 c 58.174416,0.23007 156.20595,92.77855 161.14328,146.81178 18.71,-26.23 115.71595,-30.59978 173.29195,-34.76678 78.684,-5.393 179.89527,37.982 196.20827,76.958 53.257,-1.47 104.593,4.903 148.253,17.651 -7.676,-56.138 65.734,-106.636 171.767,-119.384 -3.36,-5.149 -5.76,-10.295 -7.2,-15.689 -11.033,-42.41 47.02,-81.387 130.023,-87.025 71.007,-4.903 136.737,16.18 161.207,49.028 15.36,-2.941 31.67,-4.903 48.46,-6.128 49.42,-3.433 97.4,1.715 138.18,13.237 28.31,-26.23 79.64,-45.596 142.5,-49.764 105.07,-7.354 201.51,30.398 215.42,84.084 0.96,2.207 0.96,4.412 1.44,6.618 8.16,-1.225 16.31,-2.206 23.03,-2.451 29.75,-1.96 38.38,-0.736 56.61,0.981 10.56,-41.183 99.8,-76.484 158.81,-80.161 v 435.37 H 0.426514 Z"
         fill="#e6f4fc"
         id="path21"
         sodipodi:nodetypes="cccccccccccccccccccc" />
    </g>
    <mask
       id="mask22"
       maskUnits="userSpaceOnUse"
       x="0"
       y="657"
       width="1920"
       height="463">
      <path
         d="M 1919.57,657 H 0.426514 v 462.56 H 1919.57 Z"
         fill="#ffffff"
         id="path22" />
    </mask>
    <g
       mask="url(#mask3_5101_1747)"
       id="g23"
       transform="matrix(1.0004481,0,0,1,-0.43019112,0)">
      <path
         fill-rule="evenodd"
         clip-rule="evenodd"
         d="m 1919.57,935.892 c -10.07,-2.396 -20.15,-4.195 -31.18,-4.794 -67.65,-5.094 -128.59,25.169 -136.74,67.117 -0.96,5.395 -0.96,10.785 -0.48,15.885 -88.28,-0.9 -166.01,38.35 -181.84,93.18 -29.75,-17.68 -67.17,-30.26 -109.87,-35.66 2.4,-39.55 -44.14,-74.304 -107.95,-78.799 -47.02,-3.595 -90.68,9.889 -116.11,32.659 -25.91,-14.08 -59.02,-23.37 -95.48,-26.066 -19.67,-1.499 -38.86,-0.899 -57.09,1.196 -9.6,-46.441 -65.26,-85.691 -140.583,-95.879 -4.317,-35.954 -48.937,-65.918 -107.95,-70.412 -67.17,-5.094 -128.104,24.869 -136.74,66.817 -9.117,-1.499 -18.234,-2.698 -27.827,-3.297 -15.834,-1.197 -30.707,-1.197 -45.58,0 -38.864,-32.36 -102.197,-56.03 -153.533,-60.525 -66.69,-5.391 -94.037,1.799 -133.86,14.982 C 307.49,807.652 221.13,771.996 159.717,766.902 98.3032,761.81 79.1099,767.201 43.6066,776.49 56.00374,779.4664 58.252213,730 0.4265,730 l 1.4e-5,389.56 H 1919.57 Z"
         fill="#f6f8f9"
         id="path23"
         sodipodi:nodetypes="ccccccccccccccccccccccc" />
    </g>
    <mask
       id="mask24"
       maskUnits="userSpaceOnUse"
       x="0"
       y="730"
       width="1920"
       height="390">
      <path
         d="M 0.426758,730 H 1919.57 v 389.56 H 0.426758 Z"
         fill="#ffffff"
         id="path24" />
    </mask>
    <g
       mask="url(#mask4_5101_1747)"
       id="g25"
       transform="matrix(1.0004481,0,0,1,-0.43019112,0)">
      <path
         fill-rule="evenodd"
         clip-rule="evenodd"
         d="M 0.426758,964.878 C 10.5034,962.86 20.5768,961.346 31.6134,960.841 c 67.65,-4.29 128.5836,21.197 136.7396,56.529 0.957,4.54 0.957,9.08 0.477,13.37 88.283,-0.76 166.007,32.3 181.84,78.48 29.747,-14.89 67.17,-25.49 109.873,-30.03 -2.4,-33.31 44.14,-62.58 107.95,-66.37 47.02,-3.02 90.68,8.33 116.11,27.51 25.907,-11.86 59.014,-19.68 95.477,-21.95 19.67,-1.27 38.863,-0.76 57.093,1.01 9.597,-39.119 65.254,-72.175 140.58,-80.755 4.317,-30.28 48.937,-55.515 107.947,-59.3 67.17,-4.29 128.11,20.945 136.74,56.273 9.12,-1.263 18.24,-2.272 27.83,-2.777 15.83,-1.008 30.71,-1.008 45.58,0 38.86,-27.253 102.2,-47.188 153.53,-50.973 66.69,-4.541 94.04,1.515 133.86,12.617 29.27,-37.598 115.63,-67.627 177.04,-71.917 61.42,-4.289 80.61,0.252 116.11,8.075 -0.96,-2.523 17.27,32.805 -2.4,-7.318 -17.75,-36.085 1.5418,-93.315 45.58,-93.113 V 1119.56 H 0.426758 Z"
         fill="#f6f8f9"
         id="path25"
         sodipodi:nodetypes="cccccccccccccccccccccccc" />
    </g>
  </g>
</svg>

<svg width="1920" height="981" viewBox="0 0 1920 981" fill="none" xmlns="http://www.w3.org/2000/svg">
<g clip-path="url(#clip0_5101_1747)">
<rect width="1920" height="981" transform="matrix(-1 0 0 1 1920 0)" fill="white"/>
<mask id="mask0_5101_1747" style="mask-type:luminance" maskUnits="userSpaceOnUse" x="0" y="0" width="1920" height="981">
<path d="M1919.57 0H0.426514V980.564H1919.57V0Z" fill="white"/>
</mask>
<g mask="url(#mask0_5101_1747)">
<path d="M1919.57 0H0.426514V980.564H1919.57V0Z" fill="white"/>
<path d="M1919.57 0H0.426514V980.564H1919.57V0Z" fill="#FEFEFE"/>
<path fill-rule="evenodd" clip-rule="evenodd" d="M1919.57 0H0.426514V980.564H1919.57V0Z" fill="#72C9F2"/>
</g>
<mask id="mask1_5101_1747" style="mask-type:luminance" maskUnits="userSpaceOnUse" x="0" y="187" width="1920" height="794">
<path d="M1919.57 187.916H0.426514V980.564H1919.57V187.916Z" fill="white"/>
</mask>
<g mask="url(#mask1_5101_1747)">
<path fill-rule="evenodd" clip-rule="evenodd" d="M1919.57 980.564V202.731C1917.17 202.731 1915.26 202.486 1912.86 202.486C1859.12 201.262 1813.06 219.892 1801.07 245.631C1731.5 247.592 1672.96 271.861 1653.77 304.955C1638.42 302.013 1621.63 300.298 1603.87 299.808C1570.77 299.072 1539.58 303.485 1512.71 311.575C1495.92 293.433 1459.94 280.442 1417.72 279.461C1360.14 278.234 1310.72 299.808 1303.53 328.734C1264.66 329.47 1228.68 335.843 1198.45 346.63C1196.53 305.691 1137.04 271.371 1058.36 265.733C1059.8 261.811 1061.24 258.134 1061.71 253.967C1064.11 222.833 1016.61 196.604 956.163 195.377C903.863 194.151 858.286 211.557 844.85 236.315C833.337 234.6 821.343 233.619 808.867 233.374C772.883 232.638 738.34 238.032 710.51 247.837C686.52 229.697 646.7 217.44 600.64 216.215C523.393 214.744 458.143 245.141 454.783 284.609C454.783 286.324 454.783 287.796 454.783 289.511C448.547 288.777 442.79 288.532 437.993 288.532C415.923 288.286 409.683 289.267 396.73 291.228C383.776 261.566 314.207 239.013 271.026 238.277C227.847 237.787 223.526 240.973 203.857 246.612C162.593 192.927 74.7932 181.65 0.426514 191.21V980.564H1919.57Z" fill="#C4E2F6"/>
</g>
<mask id="mask2_5101_1747" style="mask-type:luminance" maskUnits="userSpaceOnUse" x="0" y="528" width="1920" height="453">
<path d="M1919.57 528.868H0.426514V980.564H1919.57V528.868Z" fill="white"/>
</mask>
<g mask="url(#mask2_5101_1747)">
<path fill-rule="evenodd" clip-rule="evenodd" d="M0.426514 687.131C20.0966 697.426 35.9298 709.929 46.9666 723.901C67.5966 718.753 90.1465 715.321 114.136 713.606C159.237 710.665 202.896 714.587 241.28 724.147C259.99 697.917 305.57 678.06 363.146 673.893C441.83 668.5 514.757 695.221 531.07 734.197C584.327 732.727 635.663 739.1 679.323 751.848C671.647 695.71 745.057 645.212 851.09 632.464C847.73 627.315 845.33 622.169 843.89 616.775C832.857 574.365 890.91 535.388 973.913 529.75C1044.92 524.847 1110.65 545.93 1135.12 578.778C1150.48 575.837 1166.79 573.875 1183.58 572.65C1233 569.217 1280.98 574.365 1321.76 585.887C1350.07 559.657 1401.4 540.291 1464.26 536.123C1569.33 528.769 1665.77 566.521 1679.68 620.207C1680.64 622.414 1680.64 624.619 1681.12 626.825C1689.28 625.6 1697.43 624.619 1704.15 624.374C1733.9 622.414 1742.53 623.638 1760.76 625.355C1771.32 584.172 1860.56 548.871 1919.57 545.194V980.564H0.426514V687.131Z" fill="#E6F4FC"/>
</g>
<mask id="mask3_5101_1747" style="mask-type:luminance" maskUnits="userSpaceOnUse" x="0" y="657" width="1920" height="463">
<path d="M1919.57 657H0.426514V1119.56H1919.57V657Z" fill="white"/>
</mask>
<g mask="url(#mask3_5101_1747)">
<path fill-rule="evenodd" clip-rule="evenodd" d="M1919.57 935.892C1909.5 933.496 1899.42 931.697 1888.39 931.098C1820.74 926.004 1759.8 956.267 1751.65 998.215C1750.69 1003.61 1750.69 1009 1751.17 1014.1C1662.89 1013.2 1585.16 1052.45 1569.33 1107.28C1539.58 1089.6 1502.16 1077.02 1459.46 1071.62C1461.86 1032.07 1415.32 997.316 1351.51 992.821C1304.49 989.226 1260.83 1002.71 1235.4 1025.48C1209.49 1011.4 1176.38 1002.11 1139.92 999.414C1120.25 997.915 1101.06 998.515 1082.83 1000.61C1073.23 954.169 1017.57 914.919 942.247 904.731C937.93 868.777 893.31 838.813 834.297 834.319C767.127 829.225 706.193 859.188 697.557 901.136C688.44 899.637 679.323 898.438 669.73 897.839C653.896 896.642 639.023 896.642 624.15 897.839C585.286 865.479 521.953 841.809 470.617 837.314C403.927 831.923 376.58 839.113 336.757 852.296C307.49 807.652 221.13 771.996 159.717 766.902C98.3032 761.81 79.1099 767.201 43.6066 776.49C44.5665 773.494 26.3365 815.442 46.0065 767.801C63.7599 724.954 42.6465 686.903 0.426514 657.239V1119.56H1919.57V935.892Z" fill="#F6F8F9"/>
</g>
<mask id="mask4_5101_1747" style="mask-type:luminance" maskUnits="userSpaceOnUse" x="0" y="730" width="1920" height="390">
<path d="M0.426758 730H1919.57V1119.56H0.426758V730Z" fill="white"/>
</mask>
<g mask="url(#mask4_5101_1747)">
<path fill-rule="evenodd" clip-rule="evenodd" d="M0.426758 964.878C10.5034 962.86 20.5768 961.346 31.6134 960.841C99.2634 956.551 160.197 982.038 168.353 1017.37C169.31 1021.91 169.31 1026.45 168.83 1030.74C257.113 1029.98 334.837 1063.04 350.67 1109.22C380.417 1094.33 417.84 1083.73 460.543 1079.19C458.143 1045.88 504.683 1016.61 568.493 1012.82C615.513 1009.8 659.173 1021.15 684.603 1040.33C710.51 1028.47 743.617 1020.65 780.08 1018.38C799.75 1017.11 818.943 1017.62 837.173 1019.39C846.77 980.271 902.427 947.215 977.753 938.635C982.07 908.355 1026.69 883.12 1085.7 879.335C1152.87 875.045 1213.81 900.28 1222.44 935.608C1231.56 934.345 1240.68 933.336 1250.27 932.831C1266.1 931.823 1280.98 931.823 1295.85 932.831C1334.71 905.578 1398.05 885.643 1449.38 881.858C1516.07 877.317 1543.42 883.373 1583.24 894.475C1612.51 856.877 1698.87 826.848 1760.28 822.558C1821.7 818.269 1840.89 822.81 1876.39 830.633C1875.43 828.11 1893.66 863.438 1873.99 823.315C1856.24 787.23 1877.35 755.184 1919.57 730.202V1119.56H0.426758V964.878Z" fill="#F6F8F9"/>
</g>
</g>
<defs>
<clipPath id="clip0_5101_1747">
<rect width="1920" height="981" fill="white" transform="matrix(-1 0 0 1 1920 0)"/>
</clipPath>
</defs>
</svg>
